lib/image/pion.svg

<?xml version="1.0" encoding="UTF-8" standalone="no"?>
<svg
   version="1.1"
   id="svg2383"
   sodipodi:docname="pion.svg"
   width="204.545"
   height="204.545"
   inkscape:version="1.2.2 (b0a8486541, 2022-12-01)"
   inkscape:export-filename="../../../../../../../srv/http/myApp/Chess-Web-V2/lib/image/pion.png"
   inkscape:export-xdpi="96"
   inkscape:export-ydpi="96"
   xmlns:inkscape="http://www.inkscape.org/namespaces/inkscape"
   xmlns:sodipodi="http://sodipodi.sourceforge.net/DTD/sodipodi-0.dtd"
   xmlns="http://www.w3.org/2000/svg"
   xmlns:svg="http://www.w3.org/2000/svg">
  <sodipodi:namedview
     id="namedview2385"
     pagecolor="#ffffff"
     bordercolor="#000000"
     borderopacity="0.25"
     inkscape:showpageshadow="2"
     inkscape:pageopacity="0.0"
     inkscape:pagecheckerboard="0"
     inkscape:deskcolor="#d1d1d1"
     showgrid="false"
     inkscape:zoom="4.3466667"
     inkscape:cx="19.325153"
     inkscape:cy="93.519938"
     inkscape:window-width="1920"
     inkscape:window-height="1056"
     inkscape:window-x="0"
     inkscape:window-y="0"
     inkscape:window-maximized="1"
     inkscape:current-layer="svg2383" />
  <defs
     id="defs2377" />
  <g
     id="g2381"
     transform="matrix(3.4090909,0,0,3.4090909,102.2725,95.454317)"
     style="fill:#ffffff;fill-opacity:1">
    <path
       stroke="none"
       fill="#ffffff"
       d="m 10,-18 q 0,3.45 -2,6 1.65,0 2.8,1.15 1,1 1.2,2.3 V -6 q 0,1.65 -1.2,2.8 L 9.3,-2.2 12,14 h 1 q 1.65,0 2.8,1.15 1,1 1.2,2.3 V 21 h -34 v -3.55 h 0.05 q 0.15,-1.3 1.1,-2.3 Q -14.65,14 -13,14 h 1 l 2.7,-16.2 -1.55,-1 Q -12,-4.35 -12,-6 v -2.55 h 0.05 q 0.15,-1.3 1.1,-2.3 1.2,-1.15 2.85,-1.15 -2,-2.55 -2,-6 0,-4.15 2.9,-7.15 Q -4.15,-28 0,-28 q 4.15,0 7.05,2.85 2.95,3 2.95,7.15 m 8,50 h -36 q -1.65,0 -2.85,-1.2 Q -22,29.65 -22,28 v -2.55 h 0.05 q 0.15,-1.3 1.1,-2.3 l 0.2,-0.15 h 41.3 l 0.15,0.15 q 1,1 1.2,2.3 V 28 q 0,1.65 -1.2,2.8 Q 19.65,32 18,32"
       id="path2379"
       style="fill:#ffffff;fill-opacity:1" />
  </g>
</svg>

<svg xmlns="http://www.w3.org/2000/svg" xmlns:xlink="http://www.w3.org/1999/xlink">
  <defs/>
  <g>
    <path stroke="none" fill="#FFFFFF" d="M10 -18 Q10 -14.55 8 -12 9.65 -12 10.8 -10.85 11.8 -9.85 12 -8.55 L12 -6 Q12 -4.35 10.8 -3.2 L9.3 -2.2 12 14 13 14 Q14.65 14 15.8 15.15 16.8 16.15 17 17.45 L17 21 -17 21 -17 17.45 -16.95 17.45 Q-16.8 16.15 -15.85 15.15 -14.65 14 -13 14 L-12 14 -9.3 -2.2 -10.85 -3.2 Q-12 -4.35 -12 -6 L-12 -8.55 -11.95 -8.55 Q-11.8 -9.85 -10.85 -10.85 -9.65 -12 -8 -12 -10 -14.55 -10 -18 -10 -22.15 -7.1 -25.15 -4.15 -28 0 -28 4.15 -28 7.05 -25.15 10 -22.15 10 -18 M18 32 L-18 32 Q-19.65 32 -20.85 30.8 -22 29.65 -22 28 L-22 25.45 -21.95 25.45 Q-21.8 24.15 -20.85 23.15 L-20.65 23 20.65 23 20.8 23.15 Q21.8 24.15 22 25.45 L22 28 Q22 29.65 20.8 30.8 19.65 32 18 32"/>
  </g>
</svg>
